X: 28
T:Y Daith i Gonwy
T:The Trip to Conway
M:6/8
L:1/8
Q:130
S:Cadw Twmpath Collection
R:Jig
A:Wales
Z:brian_martin12345@yahoo.com
K:D
FAA BAA|def dAA|FAA BAA|efg fed|
ade fga|bgg aff|agf fed|Bddd3:||
fgf ded|efe ABA|ded fed|cAAA2e|
fgf fed|efe ecA|def Bcd|Aafd3:||
